packages/core/src/svgs/tokens/branded/SNT.svg

<svg width="24" height="24" viewBox="0 0 24 24" fill="none" xmlns="http://www.w3.org/2000/svg">
<path d="M8.69945 10.802C8.0192 10.7971 7.33992 10.8545 6.6701 10.9731C6.92029 8.52263 8.06719 6.25104 9.89045 4.59477C11.7138 2.9385 14.0848 2.01439 16.5479 2C19.653 2 21.7802 3.5159 21.7802 6.66994C21.7802 9.81173 19.2251 11.3277 15.4966 11.3277C12.7459 11.3277 11.45 10.802 8.69945 10.802ZM8.50384 12.6602C4.77523 12.6602 2.22021 14.2006 2.22021 17.33C2.22021 20.4842 4.34736 22 7.4525 22C9.91569 21.9856 12.2867 21.0615 14.1099 19.4052C15.9332 17.7489 17.08 15.4773 17.3303 13.0269C16.6604 13.1456 15.9812 13.2029 15.3009 13.1981C12.5503 13.1981 11.2545 12.6724 8.50384 12.6724" fill="#5B6DEE"/>
</svg>

<svg xmlns="http://www.w3.org/2000/svg" width="24" height="24" fill="none" viewBox="0 0 24 24">
    <path fill="#5B6DEE" d="M8.7 10.802c-.68-.005-1.36.053-2.03.171A9.99 9.99 0 0 1 16.548 2c3.105 0 5.232 1.516 5.232 4.67 0 3.142-2.555 4.658-6.283 4.658-2.751 0-4.047-.526-6.798-.526m-.196 1.858c-3.729 0-6.284 1.54-6.284 4.67 0 3.154 2.127 4.67 5.233 4.67a9.99 9.99 0 0 0 9.877-8.973q-1.007.179-2.03.171c-2.75 0-4.046-.526-6.796-.526"/>
</svg>
